src/icons/svg/money.svg

<?xml version="1.0" encoding="UTF-8" standalone="no"?>
<svg width="128px" height="128px" viewBox="0 0 128 128" version="1.1" xmlns="http://www.w3.org/2000/svg" xmlns:xlink="http://www.w3.org/1999/xlink">
    <!-- Generator: Sketch 40 (33762) - http://www.bohemiancoding.com/sketch -->
    <title>money</title>
    <desc>Created with Sketch.</desc>
    <defs></defs>
    <g id="Page-1" stroke="none" stroke-width="1" fill="none" fill-rule="evenodd">
        <g id="money" fill="#000000">
            <path d="M54.1217391,127.892178 L54.1217391,99.2115523 L7.51304348,99.2115523 L7.51304348,87.2741276 L54.1217391,87.2741276 L54.1217391,74.8746089 L7.51304348,74.8746089 L7.51304348,62.0129964 L45.515528,62.0129964 L0.099378882,0 L22.6981366,0 L55.2546584,45.0695548 C58.8720497,50.2141998 61.6944099,54.6811071 63.7416149,58.4548736 C65.5304348,55.4050542 68.6310559,50.6762936 73.0434783,44.2685921 L103.930435,0 L127.940373,0 L82.3850932,62.0129964 L120.725466,62.0129964 L120.725466,74.8746089 L74.315528,74.8746089 L74.315528,87.2741276 L120.725466,87.2741276 L120.725466,99.2115523 L74.315528,99.2115523 L74.315528,127.892178 L54.1217391,127.892178 L54.1217391,127.892178 Z" id="Shape"></path>
        </g>
    </g>
</svg>

<svg width="128" height="128" xmlns="http://www.w3.org/2000/svg"><path d="M54.122 127.892v-28.68H7.513V87.274h46.609v-12.4H7.513v-12.86h38.003L.099 0h22.6l32.556 45.07c3.617 5.144 6.44 9.611 8.487 13.385 1.788-3.05 4.89-7.779 9.301-14.186L103.93 0h24.01L82.385 62.013h38.34v12.862h-46.41v12.4h46.41v11.937h-46.41v28.68H54.123z" fill-rule="evenodd"/></svg>
